components/ui-node-icon/src/countMatches/countMatches.medium.svg

<svg xmlns="http://www.w3.org/2000/svg" width="24" height="24" fill="none" viewBox="0 0 24 24">
  <path
    fill="var(--tbl--colors--icons--clean--primary)"
    fill-rule="evenodd"
    d="M5.89915 3.72723V11H4.14489V5.36786H4.10227L2.47585 6.36218V4.84229L4.26918 3.72723H5.89915ZM2.53622 20V18.7358L5.18892 16.4133C5.38778 16.2334 5.55706 16.0689 5.69673 15.9197C5.83641 15.7682 5.94295 15.6167 6.01634 15.4652C6.08973 15.3113 6.12642 15.1444 6.12642 14.9645C6.12642 14.7632 6.08262 14.5916 5.99503 14.4495C5.90743 14.3051 5.7867 14.1939 5.63281 14.1157C5.47893 14.0376 5.30256 13.9985 5.10369 13.9985C4.90246 13.9985 4.72609 14.04 4.57457 14.1228C4.42306 14.2033 4.30469 14.3205 4.21946 14.4744C4.1366 14.6283 4.09517 14.8153 4.09517 15.0355H2.42969C2.42969 14.5407 2.54096 14.1134 2.76349 13.7535C2.98603 13.3937 3.29853 13.1167 3.70099 12.9225C4.10582 12.7261 4.57576 12.6278 5.1108 12.6278C5.66241 12.6278 6.14181 12.7201 6.54901 12.9048C6.9562 13.0894 7.27107 13.3475 7.49361 13.6789C7.71851 14.008 7.83097 14.3903 7.83097 14.826C7.83097 15.1029 7.77533 15.3776 7.66406 15.6498C7.55279 15.9221 7.35275 16.2227 7.06392 16.5518C6.77746 16.8809 6.37027 17.2751 5.84233 17.7343L4.9723 18.5369V18.5831H7.91974V20H2.53622ZM11 4C9.89543 4 9 4.89543 9 6V9C9 10.1046 9.89543 11 11 11H20C21.1046 11 22 10.1046 22 9V6C22 4.89543 21.1046 4 20 4H11Z"
    clip-rule="evenodd"
  />
  <path
    fill="var(--tbl--colors--icons--clean--secondary)"
    d="M9 15C9 13.8954 9.89543 13 11 13H20C21.1046 13 22 13.8954 22 15V18C22 19.1046 21.1046 20 20 20H11C9.89543 20 9 19.1046 9 18V15Z"
  />
</svg>

<svg xmlns="http://www.w3.org/2000/svg" width="24" height="24" fill="none" viewBox="0 0 24 24">
  <path fill="var(--tbl--colors--icons--clean--primary)" fill-rule="evenodd" d="M5.9 3.727V11H4.144V5.368h-.043l-1.626.994v-1.52l1.793-1.115H5.9ZM2.535 20v-1.264l2.653-2.323c.199-.18.368-.344.508-.493.14-.152.246-.303.32-.455.073-.154.11-.32.11-.5a.963.963 0 0 0-.132-.515.882.882 0 0 0-.362-.334 1.153 1.153 0 0 0-.53-.117c-.2 0-.377.041-.528.124a.861.861 0 0 0-.356.351 1.17 1.17 0 0 0-.124.562H2.43c0-.495.111-.923.333-1.282.223-.36.536-.637.938-.832.405-.196.875-.294 1.41-.294.551 0 1.03.092 1.438.277.407.184.722.443.945.774.225.329.337.711.337 1.147 0 .277-.056.552-.167.824-.111.272-.311.573-.6.902-.287.329-.694.723-1.222 1.182l-.87.803v.046H7.92V20H2.536ZM11 4a2 2 0 0 0-2 2v3a2 2 0 0 0 2 2h9a2 2 0 0 0 2-2V6a2 2 0 0 0-2-2h-9Z" clip-rule="evenodd"/>
  <path fill="var(--tbl--colors--icons--clean--secondary)" d="M9 15a2 2 0 0 1 2-2h9a2 2 0 0 1 2 2v3a2 2 0 0 1-2 2h-9a2 2 0 0 1-2-2v-3Z"/>
</svg>
